X: 77
T: KITTY O'NEILL
B: O'Neill's 77
M: C
L: 1/8
Z: Transcribed by John Chambers <jc@trillian.mit.edu>
N: "Moderate"
K:Dm
f \
| (f3e) (d3a) | (gedc) (c2de) | (f3g) (a2gf) | (egfe) (.d2z.f) |
| (f3e) (d3a) | (gedc) (c2de) | f2 a2 (gf)(ef) | d6 z ||
|| c \
| c2A2 c2(de) | (fef).g .f(edc) | d2g2 g2(fg) | (agfe) (d3c) |
| c2A2 c2(de) | (fe)(fg) (a3g) | (f2ed) (ag)(fe) | d6 z ||


